src/main/resources/static/fa/svgs/solid/truck-field.svg

<svg xmlns="http://www.w3.org/2000/svg" viewBox="0 0 640 512"><!--! Font Awesome Free 6.5.2 by @fontawesome - https://fontawesome.com License - https://fontawesome.com/license/free (Icons: CC BY 4.0, Fonts: SIL OFL 1.1, Code: MIT License) Copyright 2024 Fonticons, Inc. --><path d="M32 96c0-35.3 28.7-64 64-64H320c23.7 0 44.4 12.9 55.4 32h51.8c25.3 0 48.2 14.9 58.5 38l52.8 118.8c.5 1.1 .9 2.1 1.3 3.2H544c35.3 0 64 28.7 64 64v32c17.7 0 32 14.3 32 32s-14.3 32-32 32H576c0 53-43 96-96 96s-96-43-96-96H256c0 53-43 96-96 96s-96-43-96-96H32c-17.7 0-32-14.3-32-32s14.3-32 32-32V288c-17.7 0-32-14.3-32-32V160c0-17.7 14.3-32 32-32V96zM384 224h85.9l-42.7-96H384v96zM160 432a48 48 0 1 0 0-96 48 48 0 1 0 0 96zm368-48a48 48 0 1 0 -96 0 48 48 0 1 0 96 0z"/></svg>

<svg xmlns="http://www.w3.org/2000/svg" viewBox="0 0 640 512"><!--! Font Awesome Free 6.1.1 by @fontawesome - https://fontawesome.com License - https://fontawesome.com/license/free (Icons: CC BY 4.0, Fonts: SIL OFL 1.1, Code: MIT License) Copyright 2022 Fonticons, Inc. --><path d="M32 96C32 60.65 60.65 32 96 32H320C343.7 32 364.4 44.87 375.4 64H427.2C452.5 64 475.4 78.9 485.7 102L538.5 220.8C538.1 221.9 539.4 222.9 539.8 223.1H544C579.3 223.1 608 252.7 608 287.1V319.1C625.7 319.1 640 334.3 640 352C640 369.7 625.7 384 608 384H576C576 437 533 480 480 480C426.1 480 384 437 384 384H256C256 437 213 480 160 480C106.1 480 64 437 64 384H32C14.33 384 0 369.7 0 352C0 334.3 14.33 319.1 32 319.1V287.1C14.33 287.1 0 273.7 0 255.1V159.1C0 142.3 14.33 127.1 32 127.1V96zM469.9 224L427.2 128H384V224H469.9zM160 432C186.5 432 208 410.5 208 384C208 357.5 186.5 336 160 336C133.5 336 112 357.5 112 384C112 410.5 133.5 432 160 432zM480 336C453.5 336 432 357.5 432 384C432 410.5 453.5 432 480 432C506.5 432 528 410.5 528 384C528 357.5 506.5 336 480 336z"/></svg>
